X:19
T:GB/7a/19 Murder of Maria Marten
%%VWML:GB-7a-19-0
F:http://www.vwml.org/record/GB/7a/19
T:Version 2 of 2
C:Mrs Keble (84) Shadingfield, Suffolk. X. 10
C:Transcribed by Simon Furey and Lewis Jones
L:1/4
M:4/4
I:linebreak $
K:Faeo
c/d/ | e c c/B/ A | B B c B | c F F/E/ C/D/ | E3 C |$ F F F E | A A B A/B/ | c3/2 A/ B/A/ F | F3 |]

